src/cmd/32/imagemapdialog.svg

<?xml version="1.0" encoding="UTF-8" standalone="no"?>
<svg
   xmlns:dc="http://purl.org/dc/elements/1.1/"
   xmlns:cc="http://creativecommons.org/ns#"
   xmlns:rdf="http://www.w3.org/1999/02/22-rdf-syntax-ns#"
   xmlns:svg="http://www.w3.org/2000/svg"
   xmlns="http://www.w3.org/2000/svg"
   xmlns:sodipodi="http://sodipodi.sourceforge.net/DTD/sodipodi-0.dtd"
   xmlns:inkscape="http://www.inkscape.org/namespaces/inkscape"
   viewBox="0 0 32 32"
   version="1.1"
   id="svg6"
   sodipodi:docname="imagemapdialog.svg"
   inkscape:version="0.92.4 (5da689c313, 2019-01-14)">
  <metadata
     id="metadata12">
    <rdf:RDF>
      <cc:Work
         rdf:about="">
        <dc:format>image/svg+xml</dc:format>
        <dc:type
           rdf:resource="http://purl.org/dc/dcmitype/StillImage" />
      </cc:Work>
    </rdf:RDF>
  </metadata>
  <defs
     id="defs10" />
  <sodipodi:namedview
     pagecolor="#ffffff"
     bordercolor="#666666"
     borderopacity="1"
     objecttolerance="10"
     gridtolerance="10"
     guidetolerance="10"
     inkscape:pageopacity="0"
     inkscape:pageshadow="2"
     inkscape:window-width="1920"
     inkscape:window-height="1011"
     id="namedview8"
     showgrid="true"
     inkscape:zoom="29.5"
     inkscape:cx="23.531223"
     inkscape:cy="9.9534424"
     inkscape:window-x="0"
     inkscape:window-y="32"
     inkscape:window-maximized="1"
     inkscape:current-layer="svg6">
    <inkscape:grid
       type="xygrid"
       id="grid836" />
  </sodipodi:namedview>
  <path
     d="m 4,4 v 12 1 11 h 12 1 V 27 17 h 10 v 8 h 1 V 4 H 17 16 Z M 5,5 H 16 V 16 H 5 Z M 17,5 H 27 V 16 H 17 Z M 5,17 H 16 V 27 H 5 Z"
     id="path2"
     inkscape:connector-curvature="0"
     style="fill:#762572"
     sodipodi:nodetypes="cccccccccccccccccccccccccccccc" />
  <path
     d="m 10,7 c -1.6568542,0 -3,1.3431458 -3,3 0,1.656854 1.3431458,3 3,3 1.656854,0 3,-1.343146 3,-3 0,-1.6568542 -1.343146,-3 -3,-3 z m 11,8 -6,6 -2,-2 -9,9 h 13 11 v -3 -3 z"
     id="path4"
     inkscape:connector-curvature="0"
     style="fill:#232629"
     sodipodi:nodetypes="sssssccccccccc" />
</svg>

<svg viewBox="0 0 32 32" xmlns="http://www.w3.org/2000/svg"><path d="m4 4v12 1 11h12 1v-1-10h10v8h1v-21h-11-1zm1 1h11v11h-11zm12 0h10v11h-10zm-12 12h11v10h-11zm14 9c-.55228 0-1 .44772-1 1s.44772 1 1 1 1-.44772 1-1-.44772-1-1-1zm4 0c-.55228 0-1 .44772-1 1s.44772 1 1 1 1-.44772 1-1-.44772-1-1-1zm4 0c-.55228 0-1 .44772-1 1s.44772 1 1 1 1-.44772 1-1-.44772-1-1-1z" fill="#762572"/><path d="m10 7a3 3 0 0 0 -3 3 3 3 0 0 0 3 3 3 3 0 0 0 3-3 3 3 0 0 0 -3-3zm11 8-6 6-2-2-9 9h13v-3h11v-3z" fill="#232629"/></svg>
